img/recomendation/2.svg

<svg width="44" height="44" viewBox="0 0 44 44" fill="none" xmlns="http://www.w3.org/2000/svg">
<g id="emojione-monotone:building-construction">
<path id="Vector" d="M39.875 5.5H37.125V3.30069C37.125 2.24125 36.3289 1.375 35.3581 1.375H26.5141C25.5461 1.375 24.75 2.24125 24.75 3.30069V5.5H8.20944L4.125 13.75H6.96094V19.25H6.50169L4.21094 22L6.50169 24.75H7.00356V26.2267C7.00356 26.6001 7.29163 26.9019 7.64844 26.9019C8.71475 26.9019 9.58237 27.8121 9.58237 28.9307C9.58237 30.0493 8.71475 30.9595 7.64844 30.9595C6.58212 30.9595 5.7145 30.0493 5.7145 28.9307C5.7145 28.5574 5.42575 28.2556 5.06963 28.2556C4.71281 28.2556 4.42475 28.5574 4.42475 28.9307C4.42612 30.7966 5.87125 32.3125 7.64844 32.3125C9.42494 32.3125 10.8714 30.7966 10.8714 28.9314C10.8714 27.2986 9.7625 25.9318 8.29331 25.619V24.75H8.7945L11.0859 22L8.7945 19.25H8.33594V13.75H24.75V18.6993C24.75 19.6123 25.3419 20.3775 26.125 20.5741V42.625H27.9297V38.5L33.9453 40.5625L27.9297 42.625H35.75V20.5734C36.5337 20.3775 37.125 19.6123 37.125 18.6993V13.75H39.875V11.6875H38.4464L39.875 8.97531V5.5ZM7.31706 11.6875L8.92306 8.38819L10.6597 11.6875H7.31706ZM10.3572 7.5625H13.2124L11.7851 10.2747L10.3572 7.5625ZM12.9106 11.6875L14.3385 8.97531L15.7671 11.6875H12.9106ZM15.4646 7.5625H18.3198L16.8919 10.2747L15.4646 7.5625ZM18.0187 11.6875L19.4459 8.97531L20.8732 11.6875H18.0187ZM20.5721 7.5625H23.4272L22 10.2747L20.5721 7.5625ZM24.75 11.6875H23.1254L24.5527 8.97531L24.75 9.35V11.6875ZM33.9453 38.5L27.9297 36.4375L33.9453 34.375V38.5ZM27.9297 34.375V30.25L33.9453 32.3139L27.9297 34.375ZM33.9453 30.25L27.9297 28.1875L33.9453 26.125V30.25ZM27.9297 26.125V22.0014L33.9453 24.0625L27.9297 26.125ZM33.9453 22.0014L29.9338 20.625H33.9453V22.0014ZM34.9766 10.483C34.9766 11.1451 34.5118 11.6875 33.9453 11.6875H27.7564C27.1899 11.6875 26.7266 11.1451 26.7266 10.483V4.64612C26.7266 3.97994 27.1899 3.4375 27.7564 3.4375H33.9453C34.5118 3.4375 34.9766 3.97994 34.9766 4.64612V10.483ZM37.3209 10.2747L37.125 9.90206V7.5625H38.7482L37.3209 10.2747Z" fill="#13023E"/>
</g>
</svg>

<svg width="44" height="44" viewBox="0 0 44 44" fill="none" xmlns="http://www.w3.org/2000/svg"><g id="emojione-monotone:building-construction"><path id="Vector" d="M39.875 5.5h-2.75V3.3c0-1.059-.796-1.925-1.767-1.925h-8.844c-.968 0-1.764.866-1.764 1.926V5.5H8.21l-4.085 8.25h2.836v5.5H6.5L4.212 22l2.29 2.75h.503v1.477c0 .373.288.675.644.675 1.067 0 1.934.91 1.934 2.029 0 1.118-.867 2.028-1.934 2.028-1.066 0-1.933-.91-1.933-2.028 0-.374-.29-.675-.645-.675-.357 0-.645.301-.645.675.001 1.866 1.446 3.381 3.223 3.381s3.223-1.515 3.223-3.38c0-1.633-1.109-3-2.578-3.313v-.869h.502l2.29-2.75-2.29-2.75h-.46v-5.5H24.75v4.95c0 .912.592 1.678 1.375 1.874v22.051h1.805V38.5l6.015 2.063-6.015 2.062h7.82V20.573c.784-.195 1.375-.96 1.375-1.874V13.75h2.75v-2.063h-1.429l1.429-2.712V5.5zM7.317 11.688l1.606-3.3 1.737 3.3H7.317zm3.04-4.126h2.855l-1.427 2.713-1.428-2.713zm2.554 4.125l1.428-2.712 1.428 2.713h-2.856zm2.554-4.124h2.855l-1.428 2.712-1.427-2.713zm2.554 4.125l1.427-2.713 1.427 2.713H18.02zm2.553-4.126h2.855L22 10.276l-1.428-2.713zm4.178 4.125h-1.625l1.428-2.712.197.375v2.338zM33.945 38.5l-6.015-2.063 6.015-2.062V38.5zm-6.015-4.125V30.25l6.015 2.064-6.015 2.061zm6.015-4.125l-6.015-2.063 6.015-2.062v4.125zm-6.015-4.125v-4.124l6.015 2.061-6.015 2.063zm6.015-4.124l-4.011-1.376h4.011v1.376zm1.032-11.518c0 .662-.465 1.204-1.032 1.204h-6.189c-.566 0-1.03-.542-1.03-1.204V4.646c0-.666.464-1.208 1.03-1.208h6.19c.566 0 1.03.542 1.03 1.208v5.837zm2.344-.208l-.196-.373v-2.34h1.623l-1.427 2.713z" fill="#13023E"/></g></svg>
